components/Common/Svg/svgs/prev.svg

<svg width="12" height="20" viewBox="0 0 12 20" fill="none" xmlns="http://www.w3.org/2000/svg">
<path d="M2.87145 9.61374L2.87156 9.61364L10.8762 2.31063L10.7751 2.19982L10.8762 2.31063C11.2428 1.97615 11.2421 1.42815 10.8749 1.09444C10.6941 0.930195 10.4597 0.850008 10.2285 0.850008C9.99652 0.850008 9.76162 0.930607 9.5807 1.09567L9.68179 1.20648L9.58069 1.09567L1.57674 8.39804C0.608641 9.27946 0.608662 10.7204 1.57721 11.6024L2.87145 9.61374ZM2.87145 9.61374C2.63578 9.82831 2.6356 10.1715 2.87203 10.3868L2.87214 10.3869L10.8762 17.6894C11.2428 18.0239 11.2421 18.5719 10.8748 18.9056C10.5156 19.2319 9.93917 19.2314 9.58069 18.9043C9.58069 18.9043 9.58069 18.9043 9.58069 18.9043L1.57732 11.6025L2.87145 9.61374Z" fill="#171717" stroke="#171717" stroke-width="0.3"/>
</svg>

<svg width="12" height="20" viewBox="0 0 12 20" fill="none" xmlns="http://www.w3.org/2000/svg"><path d="m2.871 9.614 8.005-7.303-.1-.111.1.11a.81.81 0 0 0-.001-1.216.96.96 0 0 0-.646-.244.96.96 0 0 0-.648.246l.1.11-.1-.11-8.004 7.302c-.968.881-.968 2.322 0 3.204l1.294-1.988Zm0 0a.51.51 0 0 0 .001.773l8.004 7.302a.81.81 0 0 1-.001 1.217.977.977 0 0 1-1.294-.002l-8.004-7.302 1.294-1.988Z" fill="#171717" stroke="#171717" stroke-width=".3"/></svg>
